src/assets/icons/months,fancy,march-3.svg

<svg width="48" height="48" viewBox="0 0 48 48" fill="none" xmlns="http://www.w3.org/2000/svg">
<rect opacity="0.2" x="4" y="6" width="40" height="40" rx="4" fill="black"/>
<path d="M6.45668 24.3636V36H8.84304V28.3977H8.93963L11.951 35.9432H13.576L16.5874 28.4261H16.6839V36H19.0703V24.3636H16.0362L12.8317 32.1818H12.6953L9.49077 24.3636H6.45668ZM23.103 36L23.9666 33.3466H28.1655L29.0291 36H31.6655L27.6541 24.3636H24.4837L20.4666 36H23.103ZM24.5916 31.4261L26.0234 27.0227H26.1143L27.5462 31.4261H24.5916ZM33.0661 36H35.5263V31.875H37.3217L39.5263 36H42.2422L39.7706 31.4773C41.0945 30.9091 41.8274 29.7557 41.8274 28.1648C41.8274 25.8523 40.299 24.3636 37.657 24.3636H33.0661V36ZM35.5263 29.8977V26.375H37.1854C38.6058 26.375 39.2933 27.0057 39.2933 28.1648C39.2933 29.3182 38.6058 29.8977 37.1967 29.8977H35.5263Z" fill="black"/>
<g opacity="0.4">
<path d="M10 4C10 2.89543 10.8954 2 12 2C13.1046 2 14 2.89543 14 4V8C14 9.10457 13.1046 10 12 10C10.8954 10 10 9.10457 10 8V4Z" fill="black"/>
<path d="M34 4C34 2.89543 34.8954 2 36 2C37.1046 2 38 2.89543 38 4V8C38 9.10457 37.1046 10 36 10C34.8954 10 34 9.10457 34 8V4Z" fill="black"/>
</g>
<path fill-rule="evenodd" clip-rule="evenodd" d="M10 6.00869C7.52043 6.04456 6.11466 6.22849 5.17157 7.17157C4 8.34315 4 10.2288 4 14V16H44V14C44 10.2288 44 8.34315 42.8284 7.17157C41.8853 6.22849 40.4796 6.04456 38 6.00869V8C38 9.10457 37.1046 10 36 10C34.8954 10 34 9.10457 34 8V6H14V8C14 9.10457 13.1046 10 12 10C10.8954 10 10 9.10457 10 8V6.00869Z" fill="black"/>
</svg>

<svg xmlns="http://www.w3.org/2000/svg" width="48" height="48" fill="none" viewBox="0 0 48 48">
  <rect width="40" height="40" x="4" y="6" fill="#000" opacity=".2" rx="4"/>
  <path fill="#000" d="M6.457 24.364V36h2.386v-7.602h.097l3.011 7.545h1.625l3.011-7.517h.097V36h2.386V24.364h-3.034l-3.204 7.818h-.137l-3.204-7.818H6.457zM23.103 36l.864-2.653h4.199L29.029 36h2.637l-4.012-11.636h-3.17L20.467 36h2.636zm1.489-4.574l1.431-4.403h.091l1.432 4.403h-2.954zM33.066 36h2.46v-4.125h1.796L39.526 36h2.716l-2.471-4.523c1.323-.568 2.056-1.721 2.056-3.312 0-2.313-1.528-3.801-4.17-3.801h-4.59V36zm2.46-6.102v-3.523h1.66c1.42 0 2.107.63 2.107 1.79 0 1.153-.687 1.733-2.096 1.733h-1.67z"/>
  <g opacity=".4">
    <path fill="#000" d="M10 4a2 2 0 114 0v4a2 2 0 11-4 0V4zM34 4a2 2 0 114 0v4a2 2 0 11-4 0V4z"/>
  </g>
  <path fill="#000" fill-rule="evenodd" d="M10 6.009c-2.48.036-3.885.22-4.828 1.163C4 8.343 4 10.229 4 14v2h40v-2c0-3.771 0-5.657-1.172-6.828-.943-.944-2.348-1.127-4.828-1.163V8a2 2 0 11-4 0V6H14v2a2 2 0 11-4 0V6.009z" clip-rule="evenodd"/>
</svg>
